!!!OTL: Schneider - Verschwoerung Es haben sich sieben und siebzig Schneider verschworen,
!!!ARE: Europa, Mitteleuropa, Lothringen, Woelflingen
!!!SCT: D0063
!!!YEM: Copyright 1995, estate of Helmut Schaffrath.
**kern
*ICvox
*Ivox
*M3/4
*k[f#c#g#]
*A:
{4d
=1
4d
4a
4a
=2
8a
16a
16a
4a
4b
=3
4a
4gn
4gn
=4
4gn
4gn}
{4gn
=5
2gn
4ccn
=6
4ccn
4ccn
4ccn
=7
2.ccn
=8
2ccn}
{8.ccn
16ccn
=9
4.b
8b
4b
=10
4a
4a
4a
=11
2a}
==
!!!AGN: Spott - Lied
!! rezitativisch, Vortragsbezeichnung: lustig, schalkhaft
!!    Verzierung; Inzipt = Variante zum Lied
!!!ONB: ESAC (Essen Associative Code) Database: DVA
!!!AMT: simple triple
!!!AIN: vox
!!!EED: Helmut Schaffrath
!!!EEV: 1.0
*-
